dist/img/twitter.svg

<svg width="25" height="20" viewBox="0 0 25 20" fill="none" xmlns="http://www.w3.org/2000/svg">
<path d="M9.75911 19.9998C8.74303 19.9998 7.69719 19.9175 6.64507 19.7526C4.792 19.4618 2.91615 18.4925 2.38535 18.2023L0.993164 17.4411L2.50044 16.9455C4.14807 16.4037 5.15035 16.0676 6.39105 15.5413C5.14874 14.9397 4.19128 13.8574 3.73038 12.4584L3.37974 11.394L3.66728 11.4379C3.39462 11.1631 3.17932 10.8841 3.01242 10.6305C2.41887 9.72893 2.10462 8.62734 2.17148 7.68332L2.23745 6.75418L2.79372 6.96966C2.55906 6.52651 2.38947 6.05325 2.2898 5.55722C2.04689 4.34753 2.25018 3.06237 2.86237 1.93855L3.34693 1.04903L3.99498 1.8274C6.04453 4.28945 8.64049 5.74993 11.7215 6.17748C11.5957 5.31001 11.69 4.47284 12.0021 3.72243C12.3655 2.84869 13.0119 2.10778 13.8709 1.57966C14.825 0.993279 15.982 0.709141 17.1287 0.779593C18.3454 0.854347 19.4501 1.31022 20.3274 2.09881C20.7558 1.98749 21.0715 1.86864 21.4982 1.70801C21.7549 1.61139 22.046 1.50168 22.4103 1.37619L23.7526 0.913684L22.8773 3.41373C22.935 3.40889 22.9945 3.40477 23.0567 3.40208L24.4901 3.33719L23.6429 4.49507C23.5943 4.5614 23.582 4.58022 23.5648 4.60621C23.4965 4.70911 23.4115 4.83711 22.2486 6.38991C21.9575 6.77874 21.8121 7.28517 21.8391 7.81616C21.9422 9.83398 21.6947 11.6596 21.1029 13.2422C20.5432 14.7394 19.6759 16.024 18.5254 17.0604C17.1017 18.3425 15.2862 19.2204 13.1293 19.6692C12.0713 19.8894 10.9351 19.9998 9.75911 19.9998Z" fill="#707070"/>
</svg>

<svg width="25" height="20" fill="none" xmlns="http://www.w3.org/2000/svg"><path d="M9.76 20c-1.017 0-2.063-.082-3.115-.247-1.853-.291-3.729-1.26-4.26-1.55L.993 17.44l1.507-.495c1.648-.542 2.65-.878 3.891-1.405-1.242-.601-2.2-1.684-2.66-3.083l-.351-1.064.287.044a5.231 5.231 0 01-.655-.808c-.593-.901-.907-2.003-.84-2.947l.065-.929.557.216a5.2 5.2 0 01-.504-1.413 5.375 5.375 0 01.572-3.618l.485-.89.648.778c2.05 2.462 4.645 3.923 7.727 4.35-.126-.867-.032-1.704.28-2.455.364-.873 1.01-1.614 1.869-2.142a5.614 5.614 0 013.258-.8 5.196 5.196 0 013.198 1.319c.429-.112.744-.23 1.171-.391.257-.097.548-.206.912-.332l1.343-.462-.876 2.5a4.42 4.42 0 01.18-.012l1.433-.065-.847 1.158c-.049.066-.061.085-.078.111-.069.103-.154.231-1.316 1.784a2.191 2.191 0 00-.41 1.426c.103 2.018-.144 3.844-.736 5.426a9.603 9.603 0 01-2.578 3.818c-1.423 1.283-3.239 2.16-5.396 2.61a16.62 16.62 0 01-3.37.33z" fill="#707070"/></svg>
